assets/Computer mouse/Flat/computer_mouse_flat.svg

<svg width="32" height="32" viewBox="0 0 32 32" fill="none" xmlns="http://www.w3.org/2000/svg">
<path d="M7 7C7 4.23858 9.23858 2 12 2H20C22.7614 2 25 4.23858 25 7V25C25 27.7614 22.7614 30 20 30H12C9.23858 30 7 27.7614 7 25V7Z" fill="#CDC4D6"/>
<path d="M16.5 2H15.5V6H15C14.4477 6 14 6.44772 14 7V11C14 11.5523 14.4477 12 15 12H15.5V14.5C15.5 14.7761 15.7239 15 16 15C16.2761 15 16.5 14.7761 16.5 14.5V12H17C17.5523 12 18 11.5523 18 11V7C18 6.44772 17.5523 6 17 6H16.5V2Z" fill="#998EA4"/>
</svg>

<svg xmlns="http://www.w3.org/2000/svg" width="32" height="32" fill="none"><path fill="#CDC4D6" d="M7 7a5 5 0 0 1 5-5h8a5 5 0 0 1 5 5v18a5 5 0 0 1-5 5h-8a5 5 0 0 1-5-5V7Z"/><path fill="#998EA4" d="M16.5 2h-1v4H15a1 1 0 0 0-1 1v4a1 1 0 0 0 1 1h.5v2.5a.5.5 0 0 0 1 0V12h.5a1 1 0 0 0 1-1V7a1 1 0 0 0-1-1h-.5V2Z"/></svg>
